X:22
T:Chacun son truc
R:Charleston
S:Carnet du tambourinaire Ginas (1924)
O:France
A:Provence
C:
Z:Pour toute observation mailto:galouvielle@free.fr
Z:Transcrit et/ou corrig par Michel BELLON - 2005-07-17
M:C|
L:1/4
Q:"Moderato" 1/2=120
K:F transpose=24
V:1
%%MIDI program 74
ffdd | ccA2 | ccBB | AAG2 | ccBB | AAGG | F4- | F3z | ffdd | ccA2 |
ccBB | AAG2 | GA=Bc | d^cde | c4 | czz2 |: c2d2 | cddc | c2d2 | cddc | c2d2 |
cdAG | F4- | F4 | c2d2 | cddc | c2d2 | cddc | c2d2 | cdAG | F4- | F2^GA | F4- |
F2^cd | B4- | B2A_A | G2G2 | fdf2| e4- | ezz2 | c2d2 | cddc | c2d2 | cddc | c2d2 | cdAG | F4- | F2z2 :|2 S
V:2 clef=perc stafflines=0 staffscale=0.7
%%MIDI program 116
K:C transpose=-24
B2B2 | B2B2 | B2B2 | B2B2 | B2B2 | B2B2 | BBBB | BBBB | B2B2 | B2B2 | B2B2 | B2B2 | B2B2 | B2B2 | BBBB | BBBB |:
B2B2 | BBBB | B2B2 | BBBB | B2B2 | BBBB | BBBB | BBBB | B2B2 | BBBB | B2B2 | BBBB | B2B2 | BBBB | BBBB |
BBBB | BBBB | BBBB | BBBB | BBBB | B2B2 | BBB2 | BBBB | BBBB | B2B2 | BBBB | B2B2 | BBBB | B2B2 | BBBB |
BBBB | BBBB :|
%%footer $D   Galouvielle-MBe 2005 \nContredanse France
